!!!COA:	Josquin des Prez
!!!CDT:	~1450-1521/08/27
!!!OTL:	Et incarnatus est
!!!AGN:	Mass section; XXX
!!!SCT:	NJE 13.13
!!!SCA:	New Josquin Edition 13.13
!!!voices:	2
**kern	**text	**kern	**text
*staff2	*staff2	*staff1	*staff1
*Ivox	*	*Ivox	*
*I"Inferior	*	*I"Superior	*
*I'If	*	*I'Sp	*
*clefGv2	*	*clefG2	*
*k[]	*	*k[]	*
*M2/1	*	*M2/1	*
*met(C|)	*	*met(C|)	*
=1-	=1-	=1-	=1-
0r	.	1d	Et
.	.	2d/	in-
.	.	2d/	-car-
=2	=2	=2	=2
1G	Et	1g	-na-
2G/	in-	1g	-tus
2G/	-car-	.	.
=3	=3	=3	=3
1c	-na-	2a/	est
.	.	1cc	.
1c	-tus	.	.
.	.	4b\	de
.	.	4a/	.
=4	=4	=4	=4
2d\	est	2b\	spi-
1f	.	1a	.
4e\	de	4g/	.
4d\	.	4f/	.
=5	=5	=5	=5
2e\	spi-	2g/	.
1d	.	2a/	-ri-
.	.	2d/	-tu
4c\	.	[2a/	sanc-
4B\	.	.	.
=6	=6	=6	=6
2c\	.	2a/]	.
2d\	-ri-	4g/	.
.	.	4f/	.
2G/	-tu	2g/	.
[2d\	sanc-	[2a/	.
=7	=7	=7	=7
4d\]	.	4a/]	.
4c\	.	4g/	.
2B\	.	1g	.
1A	.	.	.
.	.	2f#i/	.
=8	=8	=8	=8
1G	-to	1g	-to
1r	.	2r	.
.	.	2a/	et
=9	=9	=9	=9
2r	.	1a	in-
2d\	et	.	.
1d	in-	1a	-car-
=10	=10	=10	=10
1d	-car-	1b	-na-
[1e	-na-	2b\	.
.	.	4a/	-tus
.	.	4g/	.
=11	=11	=11	=11
2e\]	.	1g	est
4d\	-tus	.	.
4c\	.	.	.
1c	est	2r	.
.	.	2a/	de
=12	=12	=12	=12
2r	.	2a/	spi-
2d\	de	2a/	-ri-
2d\	spi-	2b\	-tu
2d\	-ri-	4a/	.
.	.	4g/	.
=13	=13	=13	=13
1e	-tu	2.g/	sanc-
.	.	4a/	.
2d\	sanc-	4b\	.
.	.	4cc\	.
4f\	.	[2dd\	.
4e\	.	.	.
=14	=14	=14	=14
4f\	.	2dd\]	.
4e\	.	.	.
4d\	.	1cc	.
4c\	.	.	.
1d	.	.	.
.	.	2b\	.
=15	=15	=15	=15
2c\	-to	1cc	-to
1f	ex	.	.
.	.	2r	.
2f\	ma-	[2cc\	ex
=16	=16	=16	=16
1e	-ri-	2cc\]	.
.	.	2cc\	ma-
1d	-a	1b	-ri-
=17	=17	=17	=17
2r	.	1a	-a
1f	ex	.	.
.	.	2r	.
2f\	ma-	[2cc\	ex
=18	=18	=18	=18
1e	-ri-	2cc\]	.
.	.	2cc\	ma-
2d\	-a	1b	-ri-
[2d\	vir-	.	.
=19	=19	=19	=19
2d\]	.	2a/	-a
2c\	-gi-	1a	vir-
2B\	-ne	.	.
2B\	et	2g/	-gi-
=20	=20	=20	=20
2.A/	ho-	1f	-ne
4G/	.	.	.
4A/	.	2.e/	et
4B\	.	.	.
[2c\	.	.	.
.	.	4d/	.
=21	=21	=21	=21
2c\]	.	4e/	.
.	.	4f/	.
2B\	-mo	1g	ho-
2.A/	fac-	.	.
.	.	2f/	-mo
4B\	.	.	.
=22	=22	=22	=22
2c\	.	2e/	fac-
4B\	.	1d	.
4A/	.	.	.
2G/	.	.	.
2A/	.	[2a/	.
=23	=23	=23	=23
2B\	.	2a/]	.
2c\	.	1g	.
1A	-tus	.	.
.	.	2f#i/	-tus
=24	=24	=24	=24
0Gl	est	0gl	est
==	==	==	==
*-	*-	*-	*-
!!!RDF**kern: l=long note in original notation
!!!RDF**kern: i=editorial accidental
!!!ENC:	Jesse Rodin 8/17/2013
!!!END:	2013/08/17/
!!!EED:	Jesse Rodin
!!!EEV:	2014/01/10/
!!attribution-level@Jos: 4 (questionable)
!!!ONB:	Translated from MusicXML and edited on 2014/01/10/ by Craig Sapp
!!muse2ps: C^@{COA}?\n@{SCT}^i2I150v85,130Q16
